X: 1
T:The Pap of Glencoe  "CYMRU"
M:C|
L:1/8
Q:80
C:W. Lawrie
S:March
K:HP
|: {gef}e|
{g}A{GdGe}A3/4{d}c/4{gef}e{g}c3/4d/4|
{g}e/4a3/4d3/4f/4{gef}e3/4A/4{g}c/4e3/4|  !
{gde}d3/4G/4{g}B/4{d}G/2{dc}d{g}B3/4c/4|
{gde}d3/4G/4{g}f3/4e/4{gef}e3/4d/4{gcd}c3/4B/4| |
{g}A{GdGe}A3/4{d}c/4{gef}e{g}c3/4d/4|  !
{g}e/4a3/4d3/4f/4{g}c/4e3/4{g}A3/4{d}c/4|
{g}B/4d3/4{g}G/2{d}B/2{GdG}e{gef}e3/4d/4|
{gcd}c{e}A{GAG}A:| |:  !
{g}c3/4d/4|
{gef}e3/4A/4{g}c/4{d}A3/4{ag}ag3/4f/4|
{gef}e3/4A/4{g}c3/4d/4{gef}e{g}B3/4c/4|  !
{gde}d3/4G/4{g}B/4{d}G3/4{dc}d{g}B3/4c/4|
{gde}d3/4G/4{g}f3/4e/4{gef}e3/4d/4{g}c3/4d/4| |
{gef}e3/4A/4{g}c/4{d}A3/4{ag}ag3/4f/4|  !
{g}e/4a3/4d3/4f/4{g}c/4e3/4{g}A3/4{d}c/4|
{g}B/4d3/4{g}G/2{d}B/2{GdG}e{gef}e3/4d/4|
{gcd}c{e}A{GAG}A:| |:  !
{gef}e|
{gAGAG}A{g}c/4{d}A3/4{gef}e{g}c3/4d/4|
{g}e/4a3/4d3/4f/4{gef}e3/4A/4{g}c/4e3/4|  !
{gde}d3/4G/4{g}B/4{d}G/2{dc}d{g}B/4d3/4|
{gef}e3/4A/4{g}c/4e3/4{gde}d3/4G/4{g}B/4{d}G3/4| |
{gAGAG}A{g}c/4{d}A3/4{gef}e{g}c3/4d/4|  !
{g}e/4a3/4d3/4f/4{g}c/4e3/4{g}A3/4{d}c/4|
{g}B/4d3/4{g}G/2{d}B/2{GdG}e{gef}e3/4d/4|
{gcd}c{e}A{GAG}A:| |:  !
{g}c3/4d/4|
{gef}e3/4A/4{g}c/4e3/4a3/4e/4{g}c/4e3/4|
{g}f/4a3/4d3/4f/4{gef}e3/4A/4{g}c/4e3/4|  !
{gde}d3/4G/4{g}B/4d3/4{a}g3/4d/4{g}B/4d3/4|
{gef}e3/4A/4{g}c/4e3/4{gde}d3/4G/4{g}B/4d3/4|1 |
{gef}e3/4A/4{g}c/4e3/4a3/4e/4{g}c/4e3/4|  !
{g}f/4a3/4d3/4f/4{g}c/4e3/4{g}A3/4{d}c/4|
{g}B/4d3/4{g}G/2{d}B/2{GdG}e{gef}e3/4d/4|
{gcd}c{e}A{GAG}A:|2 |  !
{gef}e3/4A/4{gAGAG}A{ag}ag3/4f/4|
{g}e/4a3/4d3/4f/4{g}c/4e3/4{g}A3/4{d}c/4|
{g}B/4d3/4{g}G/2{d}B/2{GdG}e{gef}e3/4d/4|  !
{gcd}c{e}A{GAG}A:|
